!!!ONB: MCCC : IJB0007_02 : Extracted Monophonic Melody
!!!COM: Brahms, Johannes
!!!OPR: Ballades
!!!OMV: 2
!!!SCT: Op.10
!!!ODT: 1854///
**kern
*staff1
=1
*clefG2
*k[f#c#]
*D:
*M4/4
4f#
4a
4ff#
4a
=2
4f#
4a
4.ff#
8a
=3
8A
8f#
4cc#
16d
8.a
8a
8g
=4
4.f#
16g
16a
4.e
16f#
16g
=5
4f#
4a
4b
4a
=6
4f#
4a
4b
4a
=7
8F#
8d
4a
4b
4cc
=8
8B
8g
4cc#
4dd
8c#
8g
=9
1a
=10
4dd
8cc#
8b
4f#
4d
=11
8f#
8b
16ee
8.gg
2ff#
=12
4dd#
8cc#
8b
4f#
4d#
=13
8f#
8b
16ee
8.gg#
2ff#
=14
4.dd
8dd
4dd
8ee
8ff
=15
2ff
2ee
=16
4.ee
8ee
4ee
8ff#
8gg
=17
2gg
4.ff#
8a
=18
16A
16f#
8dd
4a
4b
4cc
=19
8B
8g
4cc#
4dd
4ee
=20
16d
16f#
8ddd
4aa
4bb
4ccc
=21
8b
8gg
4ccc#
4ddd
4eee
=22
16g
16b
8bb
8ccc#
8eee[
2eee]
=23
8d
8f#
16aa
8.ddd
8F#
8F#
8F#
8F#
=24
1r
=25
1r
=26
1r
=27
2r
8f#
8f#
8f#
8f#
=28
2b
8b
8cc#
8cc#
8dd
=29
2cc#
8f#
8f#
8f#
8f#
=30
2b
8cc#
8ff
8ff
8ff#
=31
2ff#
8f#
8f#
8f#
8f#
=32
2b
8f#
8g
8g
8a
=33
2a
8g
8g
8g
8g
=34
2cc
8g
8a
8a
8a#
=35
2a#
8a
8a
8a
8a[
=36
2a]
6cc#
6b
6a
=37
3g#
6f#
8c#
8c#
8c#
8c#
=38
2d
6a
6g
6f#
=39
2e
6aa
6gg
6ff#
=40
3ee
6dd
6a
6g
6f#
=41
2e
8b
8b
8b
8b
=42
4ccc#
4r
8ff#
8ff#
4r
=43
2b
8cc#
8dd
8dd
8ee
=44
2cc#
8bb
8bb
4r
=45
2ee
8ff#
8gg
8gg
8aa
=46
4.ff#
16.ff#[
32ff#]
8ccc
32r
16.bb
16r
32b
32aa[
16.aa]
32b
=47
8gg
32r
16.ff#
16r
32b
32ee[
16.ee]
32cc
8eee
32r
16.ddd
16r
32cc
32ccc[
16.ccc]
32cc
=48
8bb
32r
16.aa
16r
32cc
32ff#[
16.ff#]
32dd
4ff#
4cc#
=49
4dd
4a#
4b
4f#
=50
4f#
4r
2r
=51
1r
=52
1r
=53
1r
=54
1r
=55
1r
=56
1r
=57
1r
=58
2r
4r
8r
16r
32r
32A
=59
8c#
32r
16.f
16r
32c#
32f#[
16.f#]
32d
8g#
32r
16.f#
16r
32d
32g#[
16.g#]
32A
=60
8c#
32r
16.f
16r
32c#
32f#[
16.f#]
32d
8g#
32r
16.f#
16r
32d
32g#[
16.g#]
32c#
=61
8a
32r
16.b
16r
32e
32cc#[
16.cc#]
32a
8dd
32r
16.cc#
16r
32a
32dd[
16.dd]
32f#
=62
8dd
32r
16.ee
16r
32a
32ff#[
16.ff#]
32dd
8gg
32r
16.ff#
16r
32dd
32gg[
16.gg]
32dd
=63
8gg#
32r
16.ff#
16r
32b
32ff[
16.ff]
32a
8dd
32r
16.cc#
16r
32f#
32b[
16.b]
32f
=64
8a
32r
16.g#
16r
32d
32f#[
16.f#]
32c#
8f
32r
16.d
16r
32A
32c#
8r
=65
1r
=66
1r
=67
1r
=68
1r
=69
1r
=70
1r
=71
1r
=72
1r
=73
1r
=74
1r
=75
1r
=76
1r
=77
1r
=78
1r
=79
1r
=80
1r
=81
1r
=82
1r
=83
2r
8f#
8f#
8f#
8f#
=84
2b
8cc#
8dd#
8dd#
8ee
=85
2dd#
8cc#
8cc#
8cc#
8cc#
=86
2ee
8ff#
16gg#
16gg#
4aa#[
=87
2aa#]
4gg#
4gg#
=88
4.ff#]
8dd#
8cc#
8f#
8f#
8f#
=89
2b
8f#
8g
8g
8a
=90
2a
8g
8g
8g
8g
=91
2cc
8g
8a
8a
8a#
=92
2a#
8a
8a
8a
8a[
=93
2a]
6cc#
6b
6a
=94
3g#
6f#
8c#
8c#
8c#
8c#
=95
2d
6a
6g
6f#
=96
2e
6aa
6gg
6ff#
=97
3ee
6dd
6a
6g
6f#
=98
2e
8b
8b
8b
8b
=99
4ccc#
4r
8ff#
8ff#
4r
=100
2b
8cc#
8dd
8dd
8ee
=101
2cc#
8bb
8bb
4r
=102
2ee
8ff#
8gg
8gg
8aa
=103
4.ff#
16.ff#[
32ff#]
8ccc
32r
16.bb
16r
32b
32aa[
16.aa]
32b
=104
8gg
32r
16.ff#
16r
32b
32ee[
16.ee]
32cc
8eee
32r
16.ddd
16r
32cc
32ccc[
16.ccc]
32cc
=105
8bb
32r
16.aa
16r
32cc
32ff#[
16.ff#]
32dd
4ff#
4cc#
=106
4dd
4a#
4b
4f#
=107
4f#
4r
2r
=108
1r
=109
1r
=110
1r
=111
1r
=112
1r
=113
1r
=114
1r
=115
1r
=116
1r
=117
1r
=118
2r
4dd#
4f#
=119
2r
4.dd#
8f#
=120
8F#
8d#
4a#
16B
8.f#
8f#
8e
=121
4.d#
16e
16f#
4.c#
16d#
16e
=122
4d#
4f#
4g#
4f#
=123
4d#
4f#
4g#
4f#
=124
8D#
8B
4f#
4g#
4a
=125
8G#
8e
4a#
4b
8A#
8e
=126
1f#
=127
4dd
8cc#
8b
4f#
4d
=128
8f#
8b
16ee
8.gg
2ff#
=129
4dd#
8cc#
8b
4f#
4d#
=130
8f#
8b
16ee
8.gg#
2ff#
=131
4.dd
8dd
4dd
8ee
8ff
=132
2ff
2ee
=133
4.ee
8ee
4ee
8ff#
8gg
=134
2gg
4.ff#
8a
=135
16A
16f#
8dd
4a
4b
4cc
=136
8B
8g
4cc#
4dd
4ee
=137
16d
16f#
8ddd
4aa
4bb
4ccc
=138
8b
8gg
4ccc#
4ddd
4eee
=139
4a
2.dd
=140
8dd
8aa
2.ccc
=141
4gg
2.bb
=142
4a#
2.cc#
=143
8dd
8ff#
2.aa
=144
4d
2.f#
=145
8f
8g
2.b
=146
4c
4g
4g
4cc
=147
4B
4g
8e
8g
4a#
=148
8r
4.a
2r
=149
1r
==
*-
